!!!COM: Robert Schumann
!!!CNT: Deutscher
!!!TXO: Deutsche 
!!!OTL: Aus meinen Tra2nen spriessen
!!!OPR: Dichterliebe
!!!OPS: Opus 48
!!!ONM: No. 2
!!!LYR: Heine
!!!ENC: Brian Bice
!!!YOR: Sa2mtliche Lieder, vol. 1, C.F. Peters
!!!ODT: 1840/
!!NB: Vocal melody and text only encoded.
**kern	**silbe
*clefG2	*
*k[f#c#g#]	*
*M2/4	*
=0	=0
4.r	.
{8cc#	{Aus
=1	=1
8.cc#	mei-
16cc#	-nen
8cc#	Tra2-
8cc#	-nen
=2	=2
4dd	sprie-
8cc#}	-ssen}
16r	.
{16cc#	{viel
=3	=3
8b	blu2-
16b	-hen-
16cc#	-de
8a	Blu-
16a	-men
16cc#	her-
=4	=4
8b;}	-vor,}
8r	.
8r	.
{8cc#	{und
=5	=5
8.cc#	mei-
16cc#	-ne
8cc#	Seuf-
8cc#	-zer
=6	=6
4dd	wer-
8cc#}	-den}
16r	.
{16cc#	{ein
=7	=7
8.b	Nach-
16cc#	-ti-
8.a	-gal-
16cc#	-len-
=8	=8
8b;}	-chor.}
8r	.
8r	.
{8b	{Und
=9	=9
8b	wenn
16b	du
16b	mich
8b	lieb
8b	hast,
=10	=10
4cc#	Kind-
4cc#}	-chen,}
=11	=11
{16f#	{schenk'
16f#	ich
16f#	dir
16f#	die
8.b	Blu-
16b	-men
=12	=12
4g#}	all,}
8r	.
{16cc#	{und
16cc#	vor
=13	=13
8.cc#	dei-
16cc#	-nem
12cc#	Fen-
12b	-ster
12cc#	soll
=14	=14
4dd	klin-
8cc#}	-gen}
16r	.
{16cc#	{das
=15	=15
8.b	Lied
16cc#	der
8.a	Nach-
16cc#	-ti-
=16	=16
4.b;}	-gall.}
8r	.
*-	*-
